X:1
T:A minor                                Jeremiah Ingalls, 1805
T:Anonymous, 16th Century Last stanza, John Newton, 1779, altered      86. 86. (C. M.)
T:Jubilee
T:Transcribed from Ingalls' Christian Harmony , 180 5 Counter by B. C. Johnston, 2017.
%%score [ 1 2 3 4 ]
L:1/8
Q:1/4=140
M:4/4
K:C
V:1 treble nm="Tr." snm="Tr."
V:2 treble nm="C." snm="C."
V:3 treble-8 nm="T." snm="T."
V:4 bass nm="B." snm="B."
V:1
"^1. Je  –  ru  –  sa  – lem,  my     hap –py home,  O    how  I   long   for   thee!       When  will  my  sor–rows   have  an   end?   My    joys,  when  shall  I     see?\n2. Thy  walls  are  all     of      precious  stone,  Most  glorious  to  be–hold;       Thy     gates  are  rich – ly  set  with  pearl;  Thy streets are paved with gold.\n3. Thy  gar – den  and  thy    pleasant  green  My  stu–dy long have been:     Such  spar–kling  light,  by  human  sight    Has    ne  –  ver   yet     been  seen." B2 | %1
 c2 c2 c2 ec | B2 B2 B2 B2 | c2 c2 c2 e2 | e6 e2 | A3 B c2 c2 | B2 B2 B2 B2 | e2 dc B2 B2 | A8 |] %9
V:2
"^4.  If      hea– ven   be    thus,  glorious Lord,  Why should I stay from thence?  What  fol  –  ly ’tis    that   I  should dread  To       die   and   go   from    hence?\n5. Reach down, reach down thine arm of grace  And  cause  me  to  ascend    Where con–gre–ga–tions ne’er break up,  And  sab baths  ne –ver      end.\n6. Je  –  sus,   my   love    to    glo – ry's   gone, Him  will   I     go     and    see,         And    all   my  breth–ren   here  be –  low   Will  soon  come  af –  ter    me." B2 | %1
 A2 c2 c2 cA | ^G2 G2 B2 B2 | c2 c2 A2 c2 | B6 B2 | c3 B A2 c2 | Bc B2 B2 B2 | c2 BA ^G2 B2 | A8 |] %9
V:3
"^7. My  friends,  I   bid  you      all   a – dieu,    I     leave  you  in  God’s  care;     And      if        I    ne –  ver    more  see   you,    Go         on,  I’ll   meet   you    there.\n 8. There  we  shall  meet  no more to part,  And heav'n shall ring with praise:  While  Jesus'  love  in  eve – ry  heart    Shall  tune  the  song  free   grace.\n 9. Mil–lions  of  years  a  – round  me  run,  Our  song  shall  still  go   on;        To  praise  the  Fa – ther   and   the   Son,   And     Spi – rit,  three   in      one." E2 | %1
 A2 A2 A2 cA | ^G2 G2 G2 G2 | A2 A2 A2 c2 | B6 B2 | c3 d e2 e2 | ^dc d2 e2 e2 | A2 A2 ^G2 G2 | %8
 A8 |] %9
V:4
"^10. When we’ve been there a thousand years,  Bright shining as the sun,   We’ve  no  less  days  to  sing  God’s praise  Than  when  we  first   be  – gun.""^_______________________________________________________________________\nWords shown here are from Ingalls (1805).\nThis hymn was first put into English words by an anonymous 16th-century author;\n    the last stanza is altered from John Newton, 1779." E,2 | %1
 A,2 A,2 A,2 A,2 | E,2 E,2 E,2 E,2 | A,2 A,2 A,2 A,2 | E,6 E,2 | A,3 A, A,2 A,2 | B,2 B,2 E,2 E,2 | %7
 C,2 D,2 E,2 E,2 | A,,8 |] %9

